X: 10526
T: Doonagore, The
R: reel
M: 4/4
K: Gmajor
DG ((3GFG) FGAc|BG ((3GFG) ABcA|d2 cA BG G2|((3Bcd) cA BGAF|
DG ((3GFG) FGAc|BG ((3GFG) ABcA|d2 cA BG G2|((3Bcd) cA G3 z:|
g3 e fdde|fdgd fdd2|g3 e fddc|defd g3 z|
g2 ag fddc|B2 BG ABcA|d2 cA BGG2|((3Bcd) cA G3 z:|

